X:142
T:Bill Malley's
C: Traditional
R: Barndance
M: 4/4
L: 1/8
K: G
D2 | G3 A B2 GB | dedB G2 d2 | B2 G2 d2 G2 | B2 A2 A2 d2 |
G3 A B2 GB | dedB G2 (3(ABc) | B2 AG E2 DE | G3 A G2 :|
|: g2 | e2 d2 g3 e | dedB G2 g2 | e2 d2 g2 d2 | B2 A2 A2 g2 |
e2 d2 g3 e | dedB G2 (3(ABc) | B2 AG E2 DE | G3 A G2 :|

